X: 97
T: Nowy monarsze możnemu
C: Mikołaj Gomółka
%%abc-version 2.0
%%abcx-abcm2ps-target-version 5.9.1 (29 Sep 2008)
%%abc-creator hum2abc beta
%%abcx-conversion-date 2021/10/04 07:59:10
%%abc-edited-by Anna Matuszewska
%%abcx-initial-encoding-date 2020-02-17
%%humdrum-veritas 3586920652
%%humdrum-veritas-data 2602266209
%%linebreak <none>
%%barnumbers 0
L: 1/4
M: C|
N: Derived from pl-wn--sd-xvi-qu-273--098_gomolka-mikolaj--nowy-monarsze-moznemu.krn
%%staves [1 2 3 4]
V: 1
V: 2 clef=alto
V: 3 clef=alto
V: 4 clef=bass
K: F
[V:1] F4F2G2 [I:setbarnb 3][|] 
[V:2] C4DCDE [|] 
[V:3] A,4A,2B,2 [|] 
[V:4] F,4D,2G,2 [|] 
[V:1] A2A2B2B2 [|] 
[V:2] F2F2F2F2 [|] 
[V:3] C2C2D2D2 [|] 
[V:4] F,E,D,C,B,,C,D,E, [|] 
[V:1] A2F2G3G [|] 
[V:2] F2F2E3D [|] 
[V:3] C2D2B,3B, [|] 
[V:4] F,2D,2_E,3E, [|] 
[V:1] F2F2F2E2 [|] 
[V:2] C2C2D2CB, [|] 
[V:3] A,2A,2B,2G,2 [|] 
[V:4] F,2F,,2B,,2C,2 [|] 
[V:1] F4c4 [|] 
[V:2] A,4F4 [|] 
[V:3] F,4A,4 [|] 
[V:4] F,,4F,4 [|] 
[V:1] c2>c2A2A2 [|] 
[V:2] E2>E2F3E [|] 
[V:3] G,2>G,2F,2F2 [|] 
[V:4] C,2>C,2D,4 [|] 
[V:1] B2>A2G2A2 [|] 
[V:2] C2C2C2F2 [|] 
[V:3] F2F2E2C2 [|] 
[V:4] B,,2B,,2C,2F,,2 [|] 
[V:1] B2>A2G2F2 [|] 
[V:2] F2>E2D2C2 [|] 
[V:3] D2>C2B,2A,2 [|] 
[V:4] B,,4B,,2F,,2 [|] 
[V:1] F2E2F4 [|] 
[V:2] D2CB,A,4 [|] 
[V:3] G,2G,2F,4 [|] 
[V:4] B,,2C,2F,,4 [|] 


